X:10
T:The Morning Star
T:Ralt na Maidne
S:Francis McPeake
M:4/4
R:Reel
K:D
GA|B2 BA BGEF|G2Bd efgd|B2BA BGEF|GBAF G2GA|
B2BA BGEF|GABd efgd|B2 BA BGEF|GBAGG4:|
|:GA|Bdef g2 ef|f2df edBA|Bdef gfga|afdfe2ed|
Bdefg2eg|f2ef edBA|Bdd{e}c deef|g{e}fafe4:|
